X: 11
T: Sonata in D major, L.12, K.478
C: Domenico Scarlatti
%%abc-version 2.0
%%abcx-abcm2ps-target-version 5.9.1 (29 Sep 2008)
%%abc-creator hum2abc beta
%%abcx-conversion-date 2021/06/28 10:15:40
%%abc-copyright 2021 Craig Stuart Sapp
%%abc-edited-by Craig Stuart Sapp
%%abc-edited-by Kelly Leistikow and Craig Stuart Sapp
%%abcx-initial-encoding-date 2005/06/30
%%humdrum-veritas 3903203436
%%humdrum-veritas-data 1240675437
%%linebreak <none>
%%barnumbers 0
L: 1/8
M: 3/4
N: Derived from L012K478.krn
Q: "Andante cantabile ([quarter]=92)" 1/4=92
%%staves {1 2}
V: 1 clef=treble
V: 2 clef=bass
K: D
[V:1] a>bd2c2 | 
[V:2] [D2F2][E2G2][E2G2] | 
[V:1] d/A/B/c/ d/e/f/g/a2- & x4aA | 
[V:2] F4[F,2D2] | 
[V:1] ag2f2e & B2d2c2 | 
[V:2] G,2A,2A,,2 | 
[V:1] [d/f/]A/B/c/ d/e/f/g/a2 & x4aA | 
[V:2] D,2E,2[F,2D2] | 
[V:1] ag2f2e & .B2d2c2 | 
[V:2] G,2A,2A,,2 | 
[V:1] fgcdAB | 
[V:2] D4D2 & D,2E,2F,2 | 
[V:1] EF2G {/A/} GF/E/ | 
[V:2] D4C2 & G,2A,2A,2 | 
[V:1] fgcdAB | 
[V:2] D4D2 & D,2E,2F,2 | 
[V:1] EFGFED | 
[V:2] D4z2 & G,2A,2B,2 | 
[V:1] A6- | 
[V:2] C/D/A,/B,/ F,/G,/C,/D,/ A,,/B,,/F,,/G,,/ | 
[V:1] AecAEC | 
[V:2] C,,2C,,2C,,2 | 
[V:1] A6- | 
[V:2] C/D/A,/B,/ F,/G,/C,/D,/ A,,/B,,/F,,/G,,/ | 
[V:1] AecA EF/E//F// | 
[V:2] C,,2C,,2C2 | 
[V:1] GdBG DE/D//E// | 
[V:2] B,2B,,2B,2 | 
[V:1] FcAF CD/C//D// | 
[V:2] A,2A,,2A,2 | 
[V:1] EBGE B,C/B,//C// | 
[V:2] G,2G,,2G,2 | 
[V:1] D4A2- | 
[V:2] F,A,F,D,A,,B,, | 
[V:1] A2!accent!^GA3- | 
[V:2] C,E,A,CE,C, | 
[V:1] A2!accent!^GA3- | 
[V:2] D,F,A,DA,D, | 
[V:1] A2!accent!^GA3- | 
[V:2] C,E,A,CA,C, | 
[V:1] A4-A^A- | 
[V:2] D,CDD,C,C | 
[V:1] AB2c2d- | 
[V:2] B,,^A,B,B,,=A,,=A, | 
[V:1] d^d2e2f- | 
[V:2] ^G,,F,^G,G,,F,,F, | 
[V:1] f^g2a2b- | 
[V:2] E,,^D,E,E,,=D,,=D, | 
[V:1] bc'2d'2c'/b/ | 
[V:2] C,,B,,C,C,,B,,,.B,, | 
[V:1] c'/b/a/^g/ a/g/f/e/ a/g/f/e/ | 
[V:2] A,,,2B,,,2C,,2 | 
[V:1] f/e/d/c/ d/c/B/A/ d/c/B/A/ | 
[V:2] D,,2E,,2F,,2 | 
[V:1] !accent!^d/e/B/^G/ E/B,/^G,/E,/z2 | 
[V:2] E,,4E,,2 | 
[V:1] z6 | 
[V:2] z6 | 
[V:1] z E=FEA^G | 
[V:2] .[A,2=C2].[A,2C2].[A,2C2] | 
[V:1] {/e/}d3=c/B/A2 | 
[V:2] .[B,2D2][B,2D2][=C2E2] | 
[V:1] z E=FEA^G | 
[V:2] .[A,2=C2].[A,2C2].[A,2C2] | 
[V:1] {/e/}d3=c/B/A2 | 
[V:2] .[B,2D2][B,2D2][^C2E2][K:clef=treble] | 
[V:1] z A_BAd^c | 
[V:2] .[D2=F2].[D2F2].[D2F2] | 
[V:1] {/a/}g3=f/e/d2 | 
[V:2] .[E2G2][E2G2][=F2A2] | 
[V:1] z A_BAdc | 
[V:2] .[D2=F2].[D2F2].[D2F2] | 
[V:1] {/a/}g3=f/e/d2 | 
[V:2] .[E2G2][E2G2][=F2A2] | 
[V:1] zd'2=c'/b/ad' & zd4z | 
[V:2] [=F2A2][F2A2][F2A2] | 
[V:1] z=c'2b/a/^ga & z=c4z | 
[V:2] [E2A2][E2A2][E2A2] | 
[V:1] zb2a/^g/fg & zB4z | 
[V:2] [D2^G2][D2G2][D2G2] | 
[V:1] z a- a/=g/=f/e/ a/g/f/e/ & zA4z | 
[V:2] [=C2E2][C2E2][C2E2][K:clef=bass] | 
[V:1] =f/g/a/g/ f/e/d/=c/ B/A/^G/^F/ | 
[V:2] [D,2D2][D,2D2][D,2D2] | 
[V:1] E/e/d/^c/ B/A/^G/F/ E/D/C/B,/ | 
[V:2] E,,6 | 
[V:1] z6 | 
[V:2] ^D/E/B,/C/ ^G,/A,/^D,/E,/ B,,/C,/^G,,/A,,/ | 
[V:1] z e^GABc | 
[V:2] E,,2E,2E,,2 | 
[V:1] z fBcd^g- | 
[V:2] D,,2D,2D,,2 | 
[V:1] gacdef | 
[V:2] C,,4C,2 | 
[V:1] {/e/} dc/B/A2{/^G/}!trill!G2{/F/G/} | 
[V:2] D,2E,2E,,2 | 
[V:1] A^gacde- | 
[V:2] [A,,2A,2][B,,2B,2][C,2C2] | 
[V:1] e^efBcd- | 
[V:2] [D,2D2][D,2D2][^G,2^G2] | 
[V:1] d^d=eABc- | 
[V:2] [C,2C2][C,2C2][F,2F2] | 
[V:1] [ce][B=d] [Bd][Ac] [Ac][^GB] | 
[V:2] [D,2D2][E,2E2][E,2E2] | 
[V:1] A^GACDE- | 
[V:2] [A,,,2A,,2][B,,,2B,,2][C,,2C,2] | 
[V:1] E^EFB,CD- | 
[V:2] [D,,2D,2][D,,2D,2][^G,,2^G,2] | 
[V:1] D^DEA,B,C- | 
[V:2] [C,,2C,2][C,,2C,2][F,,2F,2] | 
[V:1] [CE][B,=D] [B,D][A,C] [A,C][^G,B,] | 
[V:2] [D,,2D,2][E,,2E,2][E,,2E,2] | 
[V:1] z c'- c'/a/e/a/z2 | 
[V:2] [A,,2A,2][B,,2B,2][C,2C2] | 
[V:1] [ce][Bd] [Bd][Ac] [Ac][^GB] | 
[V:2] [D,2D2][E,2E2][E,2E2] | 
[V:1] z c'- c'/a/e/a/z2 | 
[V:2] [A,,,2A,,2][B,,,2B,,2][C,,2C,2] | 
[V:1] [CE][B,D] [B,D][A,C] [A,C][^G,B,] | 
[V:2] [D,,2D,2][E,,2E,2][E,,2E,2] | 
[V:1] A,6 :|]|:  
[V:2] [A,,,6A,,6] :|]|:  
[V:1] {/^g/}a6- | 
[V:2] ^G/A/E/F/ C/D/^G,/A,/ E,/F,/C,/D,/ | 
[V:1] a.az2a2- & x2ABc^d | 
[V:2] A,,4F,2 | 
[V:1] ag2x2x & eB=c[fa][eg][^df] | 
[V:2] =G,2A,2B,2 | 
[V:1] {/[^d/f/]}[e6g6]- | 
[V:2] ^D/E/B,/=C/ G,/A,/^D,/E,/ B,,/=C,/G,,/A,,/ | 
[V:1] [eg].gz2g2- & x2GAB^c | 
[V:2] E,,4E,2 | 
[V:1] [dg][Af][Ba][eg][df][ce] | 
[V:2] F,2G,2A,2 | 
[V:1] {/[c/e/]}[d6f6]- | 
[V:2] C/D/A,/B,/ F,/G,/C,/D,/ A,,/B,,/F,,/G,,/ | 
[V:1] ff ag/f/ ed & d2A2B2 | 
[V:2] D,,2F,,2G,,2 | 
[V:1] ^g/a/e/f/ c/d/^G/A/ E/F/C/D/ | 
[V:2] A,,6 | 
[V:1] z6 | 
[V:2] ^G,/A,/E,/F,/ C,/D,/^G,,/A,,/A,,,2 | 
[V:1] z6 | 
[V:2] z6[K:clef=treble] | 
[V:1] z A_BAdc | 
[V:2] .[D2=F2].[D2F2].[D2F2] | 
[V:1] {/a/}g3=f/e/d2 | 
[V:2] .[E2G2][E2G2][=F2A2] | 
[V:1] z A_BAdc | 
[V:2] .[D2=F2].[D2F2].[D2F2] | 
[V:1] {/a/}g3=f/e/d2 | 
[V:2] .[E2G2][E2G2][^F2A2] | 
[V:1] z d_edgf | 
[V:2] .[G2_B2].[G2B2].[G2B2] | 
[V:1] {/d'/}=c'3_b/a/g2 | 
[V:2] .[A2=c2][A2c2][_B2d2] | 
[V:1] z d_edgf | 
[V:2] .[G2_B2].[G2B2].[G2B2] | 
[V:1] {/d'/}=c'3_b/a/g2 | 
[V:2] .[A2=c2][A2c2][_B2d2] | 
[V:1] zg'2=f'/e'/d'e' & zg4z | 
[V:2] [_B2d2][B2d2][B2d2] | 
[V:1] z=f'2e'/d'/c'd' & z=f4z | 
[V:2] [A2d2][A2d2][A2d2] | 
[V:1] ze'2d'/c'/bc' & ze4z | 
[V:2] [G2c2][G2c2][G2c2] | 
[V:1] z d'- d'/=c'/_b/a/ d'/c'/b/a/ & zd4z | 
[V:2] [=F2A2][F2A2][F2A2] | 
[V:1] _b/=c'/d'/c'/ b/a/g/=f/ e/d/^c/d/ | 
[V:2] [G2_B2][G2B2][K:clef=bass]G,2 | 
[V:1] ^g/a/e/^f/ c/d/^G/A/ E/F/C/D/ | 
[V:2] A,,4z2 | 
[V:1] z6 | 
[V:2] ^G,/A,/E,/F,/ C,/D,/^G,,/A,,/A,,,2 | 
[V:1] z6 | 
[V:2] z6 | 
[V:1] z =F!mordent!GF_BA | 
[V:2] =F,,2F,,2F,,2 | 
[V:1] .de2=f/d/ [A=c][G_B] & z2G2x2 | 
[V:2] =F,,2F,,2F,,2 | 
[V:1] [=FA][EG][DF][=CE][=B,D][A,C] | 
[V:2] =F,,2F,,2F,,2 | 
[V:1] [G,B,] G!mordent!AG=cB | 
[V:2] G,,2G,,2G,,2 | 
[V:1] .e^f2g/e/ .[Bd][A=c] & z2A2x2 | 
[V:2] G,,2G,,2G,,2 | 
[V:1] [GB][FA][EG][DF][CE][B,D] | 
[V:2] G,,2G,,2G,,2 | 
[V:1] [A,C] A!mordent!BAdc | 
[V:2] A,,2A,,2A,,2 | 
[V:1] .f^g2a/f/ ea/f/ & z2B2c3/d/ | 
[V:2] A,,2A,,2A,,2 | 
[V:1] ea/f/ ea/f/ ea/f/ & c>d c>d c3/d/ | 
[V:2] A,,2A,,2A,,2 | 
[V:1] e/a/e/c/ A/E/C/A,/z2 & c xx4 | 
[V:2] A,,,2z2E,/C,/A,,/E,,/ | 
[V:1] z acdef | 
[V:2] A,,,2A,2A,2 | 
[V:1] z befgc'- | 
[V:2] [G,2E2][G,2E2][G,2E2] | 
[V:1] c'd'fgab | 
[V:2] [F,2D2][F,2D2][B,2D2] | 
[V:1] {/a/} gf/e/d2{/c/}!trill!c2{/B/c/} | 
[V:2] [G,2G2][A,2F2][G,2E2] | 
[V:1] dc'd'fga- | 
[V:2] [D,2D2][E,2E2][F,2F2][K:clef=treble] | 
[V:1] a^abefg- | 
[V:2] [G,2G2][G,2G2][C2c2] | 
[V:1] g^g=adef- | 
[V:2] [F,2F2][F,2F2][B,2B2] | 
[V:1] [fa][eg] [eg][df] [df][ce] | 
[V:2] [G,2G2][A,2A2][A,2A2][K:clef=bass] | 
[V:1] {/e} dcdFGA- | 
[V:2] [D,,2D,2][E,,2E,2][F,,2F,2] | 
[V:1] A^ABEFG- | 
[V:2] [G,,2G,2][G,,2G,2][C,2C2] | 
[V:1] G^G=ADEF- | 
[V:2] [F,,2F,2][F,,2F,2][B,,2B,2] | 
[V:1] [FA][EG] [EG][DF] [DF][CE] | 
[V:2] [G,,2G,2][A,,2A,2][A,,2A,2] | 
[V:1] [DF] f- f/d/A/a/z2 | 
[V:2] [D,,2D,2][E,,2E,2][F,,2F,2] | 
[V:1] [FA][EG][EG][DF][DF][CE] | 
[V:2] [G,,2G,2][A,,2A,2][A,,2A,2] | 
[V:1] z f- f/d/A/a/z2[K:clef=bass] | 
[V:2] [D,,2D,2][E,,2E,2][F,,2F,2] | 
[V:1] [F,A,][E,G,][E,G,][D,F,][D,F,][C,E,] | 
[V:2] G,,2A,,2A,,,2 | 
[V:1] D,6 :|]  
[V:2] D,,6 :|]  


